X:1
T:Buffalo, 10.10.D
T:Buffalo, 10.10.D
T:T. R. Bowden, 1899
T:Public Domain Courtesy of the Cyber Hymnal™
C:T. R. Bowden, 1899
Z:Public Domain
Z:Courtesy of the Cyber Hymnal™
%%score ( 1 2 ) 3
L:1/8
Q:1/4=100
M:4/4
K:Eb
V:1 treble 
V:2 treble 
V:3 bass 
V:1
 [EB]2 | [EB]3 [EG] E[B,D][B,E][B,F] | [EG]2 [FA]2 [GB]2 [GB]2 | [FA]3 [DF] [B,D]B,[B,C][B,D] | %4
 [B,E]2 [B,F]2 [EG]2 [GB]2 | [EG]3 [DF] E[B,D]E[DF] | [EG]2 [FA]2 [GB]2 [Ge]2 | %7
 [Ae]3 [Ec] [EB]2 E2 | [EG]E[EG][DF] !fermata!E2 |] %9
V:2
 x2 | x4 E x3 | x8 | x5 B, x2 | x8 | x4 EE x2 | x8 | x6 E2 | x E x E2 x |] %9
V:3
 [E,G,]2 | [E,G,]3 [E,B,] [G,B,][F,A,][E,G,][D,B,] | [E,B,]2 [E,B,]2 [E,E]2 [E,E]2 | %3
 [B,,D]3 [B,,B,] [B,,A,][B,,A,][A,B,][F,A,] | [E,G,]2 [E,A,]2 [E,B,]2 [E,E]2 | %5
 [E,B,]3 [F,B,] [G,B,][A,B,][G,B,][F,B,] | [E,B,]2 [E,B,]2 [E,E]2 [E,B,]2 | %7
 [A,C]3 [A,,A,] [B,,G,]2 [C,=A,]2 | [B,,B,][B,,G,][B,,G,B,][B,,A,] !fermata![E,G,]2 |] %9

